X:1
T:Isaac Watts, 1719 (Psalm 142)   86. 86. (C. M.).
T:D Major Oliver Holden, 1796
T:Ceylon
T:No copyright. Transcribed from The Union Harmony, 1796.
%%score [ 1 2 3 4 ]
L:1/8
M:4/4
K:F
V:1 treble nm="Tr." snm="Tr."
V:2 treble nm="C." snm="C."
V:3 treble-8 nm="T." snm="T."
V:4 bass nm="B." snm="B."
V:1
 A4 | F4 F4 | A2 A2 A2 A2 | A4 F4 | F2 FG A2 A2 | A8- | A4 d4 | c2 c2 A2 Ad | ^c2 c2 c2 d2 | %9
 (AGAB A2) FG | (A3 G F2) [EA]2 | [DA]8 |] %12
V:2
 D4 | D4 D4 | F2 F2 F2 E2 | F4 D4 | D2 D2 D2 ^C2 | D8 | z4 D4 | F2 F2 F2 F2 | A2 A2 A2 A2 | F6 D2 | %10
w: 1.~From|my sad|pri- son set me|free, Then|I shall praise Thy|name;|And|ho- ly men shall|join with me Thy|kind- ness|
 D4 ^C4 | D8 |] %12
w: to pro-|claim.|
V:3
 D4 | A4 A4 | d2 d2 e2 d^c | d4 A4 | Ad AG F2 E2 | D8 | z4 A4 | A2 A2 d2 d2 | e2 e2 e2 fe | %9
 (d>^cde d2) A>G | (F3 G A2) ^c2 | d8 |] %12
V:4
 D,4 | D,4 D,4 | D,2 D,2 A,2 A,,2 | D,4 D,4 | D,2 D,2 A,,2 A,,2 | D,8- | D,4 D,4 | %7
 F,2 F,2 D,2 D,2 | A,2 A,2 A,2 D,2 | (D,>E,F,G, A,2) D,2 | A,,6 A,,2 | D,8 |] %12

